icons/vitest.svg

<svg width="16" height="16" viewBox="0 0 16 16" fill="none" xmlns="http://www.w3.org/2000/svg">
<path d="M8.00316 14C8.07943 14.0001 8.15496 13.9836 8.22538 13.9515C8.296 13.9201 8.36011 13.8733 8.4139 13.8141L11.1206 10.8424C11.2016 10.7533 11.2567 10.6399 11.2789 10.5164C11.3011 10.393 11.2895 10.2651 11.2454 10.149C11.2013 10.0328 11.1268 9.93361 11.0313 9.86387C10.9358 9.79412 10.8236 9.75699 10.7088 9.75717C10.6327 9.75667 10.5574 9.77275 10.487 9.80446C10.4167 9.83617 10.3528 9.88288 10.2991 9.94189L8.00316 12.4633L2.98789 6.97017C2.90606 6.88243 2.80242 6.82311 2.68996 6.79967C2.5775 6.77623 2.46123 6.7897 2.35573 6.83841C2.25023 6.88711 2.1602 6.96887 2.09691 7.07343C2.03363 7.178 1.99992 7.30072 2 7.42621C1.99939 7.50939 2.01377 7.59189 2.04233 7.66896C2.07088 7.74603 2.11305 7.81616 2.1664 7.87531L7.5882 13.8187C7.69746 13.9376 7.84505 14.0043 7.99895 14.0046L8.00316 14Z" fill="#91C620" fill-opacity="0.5"/>
<path d="M1.85 7.4257C1.85001 7.27378 1.89082 7.12427 1.96858 6.99577C2.04651 6.867 2.15874 6.76413 2.29286 6.70222C2.42721 6.6402 2.57622 6.62274 2.72057 6.65283C2.86476 6.68288 2.99563 6.75854 3.09759 6.86787L3.09867 6.86903L3.09866 6.86904L8.00301 12.2407L10.1882 9.84091C10.1882 9.8409 10.1882 9.8409 10.1882 9.8409C10.2552 9.76727 10.3357 9.70814 10.4254 9.66771C10.5149 9.62734 10.6114 9.60662 10.7092 9.60717M1.85 7.4257C1.85 7.4255 1.85 7.4253 1.85 7.4251L2 7.42621L1.85 7.42631C1.85 7.42611 1.85 7.4259 1.85 7.4257ZM1.85 7.4257C1.84933 7.52662 1.8668 7.62695 1.90167 7.72107C1.93662 7.81539 1.98853 7.90205 2.05501 7.97577L2.05501 7.97578L2.05559 7.9764L7.47739 13.9198L7.47779 13.9203C7.61382 14.0682 7.80066 14.1543 7.99869 14.1546L8.06504 14.1547L8.07256 14.1465C8.14643 14.139 8.21874 14.1193 8.28698 14.0883M8.28698 14.0883C8.28679 14.0884 8.2866 14.0884 8.28642 14.0885L8.22538 13.9515L8.2876 14.088C8.28739 14.0881 8.28718 14.0882 8.28698 14.0883ZM8.28698 14.0883C8.37702 14.0481 8.4578 13.9889 8.52493 13.915L11.2315 10.9434L11.2316 10.9433C11.3324 10.8325 11.3996 10.693 11.4266 10.543C11.4535 10.3931 11.4395 10.2376 11.3856 10.0958C11.3318 9.95388 11.24 9.8305 11.1198 9.74272C10.9995 9.65492 10.8566 9.60707 10.7092 9.60717M10.7092 9.60717C10.7094 9.60717 10.7096 9.60717 10.7098 9.60717L10.7088 9.75717L10.7086 9.60717C10.7088 9.60717 10.709 9.60717 10.7092 9.60717ZM2.1664 7.87531L2.1664 7.87531L2.1664 7.87531Z" stroke="#84B817" stroke-opacity="0.5" stroke-width="0.3"/>
<path d="M8.00334 14.15V14.15V14.15ZM8.00334 14.15C8.20061 14.1491 8.38664 14.0631 8.52221 13.9157L8.52259 13.9152L13.9465 7.97182L13.9466 7.9719L13.9505 7.96724C14.0766 7.81729 14.1431 7.62218 14.1395 7.42303C14.1358 7.22388 14.062 7.03161 13.9301 6.88705C13.7979 6.74208 13.6167 6.65596 13.4234 6.65165C13.2301 6.64734 13.0455 6.72536 12.9076 6.86467L12.9075 6.86459L12.9034 6.8691L8.00311 12.2408M8.00334 14.15L8.00311 12.2408M8.00311 12.2408L5.81181 9.84092C5.81181 9.84091 5.8118 9.84091 5.8118 9.8409C5.74476 9.76728 5.66428 9.70815 5.57462 9.66773C5.4849 9.62727 5.38818 9.60654 5.29023 9.60718L5.29121 9.75718M8.00311 12.2408L4.87941 10.8424C4.79839 10.7533 4.74328 10.6399 4.72107 10.5165C4.69885 10.393 4.71052 10.2652 4.75459 10.149C4.79867 10.0328 4.87318 9.93362 4.96869 9.86388C5.06421 9.79414 5.17644 9.757 5.29121 9.75718M5.29121 9.75718L5.29144 9.60718C5.14377 9.60695 5.00065 9.65481 4.88023 9.74274C4.76002 9.83051 4.66819 9.95389 4.61435 10.0958C4.56053 10.2376 4.54645 10.3931 4.57344 10.543C4.60043 10.693 4.66765 10.8325 4.76843 10.9433L4.76863 10.9436L7.48139 13.915M5.29121 9.75718C5.36725 9.75668 5.44263 9.77276 5.51296 9.80447C5.58329 9.83618 5.64717 9.8829 5.70089 9.9419L7.48139 13.915M7.48139 13.915C7.48144 13.9151 7.48148 13.9151 7.48153 13.9151L7.48164 13.9153L7.59239 13.8142L7.48139 13.915ZM7.71931 14.0883C7.80816 14.1287 7.90393 14.1498 8.00105 14.15L7.71872 14.088C7.71892 14.0881 7.71911 14.0882 7.71931 14.0883Z" fill="#84B817" stroke="#84B817" stroke-width="0.3"/>
<path d="M10.9608 4.94517L8.24966 9.87358C8.2208 9.92584 8.17924 9.96492 8.13122 9.98496C8.08307 10.005 8.03107 10.005 7.98293 9.98496C7.93496 9.96477 7.89366 9.92516 7.86548 9.87233C7.83697 9.82019 7.82265 9.75784 7.82468 9.69462L7.93316 6.9726L6.18149 6.50704C6.14483 6.49642 6.11071 6.47497 6.08196 6.44447C6.05291 6.41392 6.03034 6.37479 6.01627 6.33058C6.00242 6.28604 5.9973 6.23796 6.00134 6.19041C6.0054 6.14226 6.0191 6.09619 6.04115 6.0565L8.75028 1.12559C8.77908 1.07353 8.8207 1.03484 8.86872 1.01545C8.91747 0.994849 8.97025 0.994849 9.019 1.01545C9.06683 1.03598 9.10805 1.07551 9.13644 1.12809C9.16515 1.18006 9.17917 1.24263 9.17625 1.3058L9.06578 4.02782L10.8175 4.49463C10.8543 4.50473 10.8885 4.52624 10.917 4.5572C10.9463 4.58741 10.9689 4.62664 10.9827 4.67109C10.9974 4.71578 11.0029 4.76443 10.9986 4.81251C10.9934 4.85993 10.9798 4.90528 10.9588 4.94517H10.9608Z" fill="#F3AF00"/>
</svg>

<svg xmlns="http://www.w3.org/2000/svg" width="16" height="16" fill="none"><path fill="#91C620" fill-opacity=".5" d="M8.003 14a.566.566 0 0 0 .41-.186l2.708-2.972a.657.657 0 0 0 .158-.326.693.693 0 0 0-.034-.367.627.627 0 0 0-.214-.285.544.544 0 0 0-.732.078l-2.296 2.521L2.988 6.97a.566.566 0 0 0-.298-.17.534.534 0 0 0-.334.038.597.597 0 0 0-.26.235.682.682 0 0 0-.096.353c0 .083.014.166.042.243a.64.64 0 0 0 .124.206l5.422 5.944a.56.56 0 0 0 .41.186L8.004 14Z"/><path stroke="#84B817" stroke-opacity=".5" stroke-width=".3" d="M1.85 7.426c0-.152.04-.302.119-.43a.747.747 0 0 1 .324-.294.684.684 0 0 1 .428-.05c.144.03.275.107.377.216v.001l4.905 5.372 2.185-2.4a.723.723 0 0 1 .237-.173.68.68 0 0 1 .284-.06M1.85 7.425H2h-.15Zm0 0c0 .1.017.2.052.295a.79.79 0 0 0 .153.255l5.422 5.944a.71.71 0 0 0 .522.235h.066l.008-.008a.686.686 0 0 0 .214-.059m0 0-.062-.136.063.136h-.001Zm0 0c.09-.04.17-.1.238-.173l2.707-2.972c.1-.11.168-.25.195-.4a.843.843 0 0 0-.041-.447.777.777 0 0 0-.266-.353.695.695 0 0 0-.41-.136m0 0-.001.15v-.15ZM2.165 7.875Z"/><path fill="#84B817" stroke="#84B817" stroke-width=".3" d="M8.003 14.15Zm0 0a.71.71 0 0 0 .52-.234l5.424-5.944.004-.005a.824.824 0 0 0 .188-.544.819.819 0 0 0-.209-.536.707.707 0 0 0-.507-.235.703.703 0 0 0-.515.213l-.005.004-4.9 5.372m0 1.909v-1.91m0 0-2.191-2.4a.723.723 0 0 0-.237-.172.68.68 0 0 0-.285-.06l.001.15m2.712 2.483L4.88 10.842a.657.657 0 0 1-.158-.325.693.693 0 0 1 .034-.368.627.627 0 0 1 .214-.285.545.545 0 0 1 .322-.107m0 0v-.15a.695.695 0 0 0-.41.136.777.777 0 0 0-.267.353.843.843 0 0 0-.04.447c.026.15.094.29.194.4l2.713 2.972m-2.19-4.158a.53.53 0 0 1 .222.047c.07.032.134.079.188.138l1.78 3.973m0 0 .111-.1-.11.1Zm.238.173c.09.04.185.062.282.062l-.282-.062Z"/><path fill="#F3AF00" d="M10.96 4.945 8.25 9.874a.247.247 0 0 1-.119.111.19.19 0 0 1-.148 0 .244.244 0 0 1-.118-.113.35.35 0 0 1-.04-.177l.108-2.722-1.752-.466a.223.223 0 0 1-.099-.063.295.295 0 0 1-.066-.113.37.37 0 0 1 .025-.275l2.71-4.93a.242.242 0 0 1 .118-.11.19.19 0 0 1 .15 0c.048.02.09.06.117.112a.338.338 0 0 1 .04.178l-.11 2.722 1.752.467c.036.01.07.031.099.062.03.03.052.07.066.114a.354.354 0 0 1-.024.274h.002Z"/></svg>
